X:84
T:Canzonetta in G Major
C:Buxtehude, D.
M:3/4
L:1/8
Q:1/4=96
K:G
|:D|G2 AB c2|d2 cB A2|G2 AB cd|G4 D2|
G2 AB c2|d2 ef g2|a2 gf ed|G4:|

